packages/tokens/icons/angryUser/size16Px.svg

<svg viewBox="0 0 16 16" fill="none" xmlns="http://www.w3.org/2000/svg" width="1em" height="1em"><path d="M11.5 14.5V14.5C11.5 13.3954 10.6046 12.5 9.5 12.5H6.5C5.39543 12.5 4.5 13.3954 4.5 14.5V14.5" stroke="currentColor" stroke-linecap="round"/><path d="M8 11C9.10457 11 10 10.1046 10 9C10 7.89543 9.10457 7 8 7C6.89543 7 6 7.89543 6 9C6 10.1046 6.89543 11 8 11Z" stroke="currentColor" stroke-linecap="round" stroke-linejoin="round"/><path d="M11 1.5L6 1.5C5.44772 1.5 5 1.94772 5 2.5V2.5C5 3.05228 5.44772 3.5 6 3.5L10.5 3.5C11.0523 3.5 11.5 3.94772 11.5 4.5V4.5C11.5 5.05228 11.0523 5.5 10.5 5.5H8.5" stroke="currentColor" stroke-linecap="round" stroke-linejoin="round"/></svg>

<svg xmlns="http://www.w3.org/2000/svg" fill="none" viewBox="0 0 16 16" width="1em" height="1em"><path stroke="currentColor" stroke-linecap="round" d="M11.5 14.5v0a2 2 0 0 0-2-2h-3a2 2 0 0 0-2 2v0"/><path stroke="currentColor" stroke-linecap="round" stroke-linejoin="round" d="M8 11a2 2 0 1 0 0-4 2 2 0 0 0 0 4Zm3-9.5H6a1 1 0 0 0-1 1v0a1 1 0 0 0 1 1h4.5a1 1 0 0 1 1 1v0a1 1 0 0 1-1 1h-2"/></svg>
